src/icons/lib.svg

<svg viewBox="0 0 24 24" xmlns="http://www.w3.org/2000/svg"><path d="M19 7H9V5h10m-4 10H9v-2h6m4-2H9V9h10m1-7H8a2 2 0 0 0-2 2v12a2 2 0 0 0 2 2h12a2 2 0 0 0 2-2V4a2 2 0 0 0-2-2M4 6H2v14a2 2 0 0 0 2 2h14v-2H4V6z" fill="#8bc34a"/></svg>

<svg version="1.1" viewBox="0 0 24 24" xmlns="http://www.w3.org/2000/svg">
<path d="M19,7H9V5H19M15,15H9V13H15M19,11H9V9H19M20,2H8A2,2 0 0,0 6,4V16A2,2 0 0,0 8,18H20A2,2 0 0,0 22,16V4A2,2 0 0,0 20,2M4,6H2V20A2,2 0 0,0 4,22H18V20H4V6Z" fill="#8bc34a"/>
</svg>
